icons/square-fill-16.svg

<svg width="16" height="16" viewBox="0 0 16 16" fill="none" xmlns="http://www.w3.org/2000/svg">
<path fill-rule="evenodd" clip-rule="evenodd" d="M4 5.75C4 4.7835 4.7835 4 5.75 4H10.25C11.2165 4 12 4.7835 12 5.75V10.25C12 11.2165 11.2165 12 10.25 12H5.75C4.7835 12 4 11.2165 4 10.25V5.75ZM5.75 5.5C5.61193 5.5 5.5 5.61193 5.5 5.75V10.25C5.5 10.3881 5.61193 10.5 5.75 10.5H10.25C10.3881 10.5 10.5 10.3881 10.5 10.25V5.75C10.5 5.61193 10.3881 5.5 10.25 5.5H5.75Z" fill="black"/>
</svg>

<svg xmlns="http://www.w3.org/2000/svg" width="16" height="16" viewBox="0 0 16 16"><path fill-rule="evenodd" d="M4 5.75C4 4.784 4.784 4 5.75 4h4.5c.966 0 1.75.784 1.75 1.75v4.5A1.75 1.75 0 0110.25 12h-4.5A1.75 1.75 0 014 10.25v-4.5zm1.75-.25a.25.25 0 00-.25.25v4.5c0 .138.112.25.25.25h4.5a.25.25 0 00.25-.25v-4.5a.25.25 0 00-.25-.25h-4.5z"/></svg>
